svgs/apkmirror_installer.svg

<svg width="192" height="192" viewBox="0 0 192 192" fill="none" xmlns="http://www.w3.org/2000/svg"><path d="m22 136 11.6-32M96 136l-11.6-32m0 0L67 56H51l-17.4 48m50.8 0H33.6M96 136l11.6-32L125 56h16l17.4 48 11.6 32" stroke="#000" stroke-width="12" stroke-linecap="round" stroke-linejoin="round"/></svg>

<?xml version="1.0" encoding="UTF-8" standalone="no"?><svg xmlns:android="http://schemas.android.com/apk/res/android" height="192" width="192" xmlns="http://www.w3.org/2000/svg">
  <path d="M22,136L33.6,104M96,136L84.4,104M84.4,104L67,56H51L33.6,104M84.4,104H33.6" fill="#000000" fill-opacity="0.0" stroke="#000000" stroke-linecap="round" stroke-linejoin="round" stroke-width="12"/>
  <path d="M96,136L107.6,104L125,56H141L158.4,104L170,136" fill="#000000" fill-opacity="0.0" stroke="#000000" stroke-linecap="round" stroke-linejoin="round" stroke-width="12"/>
</svg>
